src/img/icons/i-present.svg

<svg width="32" height="34" viewBox="0 0 32 34" fill="none" xmlns="http://www.w3.org/2000/svg">
<path d="M31.4172 8.12793V24.362L27.1252 33.0188L26.99 33.2919L15.6279 32.5428L11.2605 32.2541L1.12622 31.583V12.1676L11.2605 12.4511L15.7944 12.5812L27.2631 12.9037L31.4172 8.12793Z" fill="#EC665C"/>
<path d="M31.9999 3.81767V9.48567L31.4173 10.4143L30.3768 12.0739L29.4533 13.5409L27.4166 16.7872L27.3672 16.7846L0.231445 15.3904V9.79782L0.301683 9.72239L3.54018 6.21597L4.71331 4.94658L6.8333 2.65234L31.9999 3.81767Z" fill="#EC665C"/>
<path opacity="0.1" d="M27.4166 11.1949V16.7875L0.231445 15.3907V9.79809L0.301683 9.72266L27.4166 11.1949Z" fill="black"/>
<path opacity="0.15" d="M31.9999 3.81787V9.48589L27.4166 16.7875V11.1949L31.9999 3.81787Z" fill="black"/>
<path d="M30.3793 6.42686L30.3767 10.235V12.0741L30.3689 26.4769L29.2946 28.6437L29.4533 13.5412L29.4793 11.2313V11.2287L29.5157 7.81851L3.54016 6.21616L4.71329 4.94678L30.3793 6.42686Z" fill="#FAC269"/>
<path d="M17.6308 6.61133L15.81 10.5652L15.7944 12.5811L15.6279 32.5427L11.2605 32.254V10.3024L13.5912 6.61133H17.6308Z" fill="#FAC269"/>
<path d="M11.6377 6.8795C10.5855 7.22892 9.4551 7.26865 8.38099 6.99395C8.17275 6.95494 7.9772 6.86564 7.81133 6.73383C7.63265 6.53663 7.51044 6.29491 7.45757 6.03411C7.2678 5.49514 7.16251 4.93008 7.14542 4.35893C7.13949 4.07292 7.19925 3.78934 7.32011 3.53004C7.44097 3.27074 7.61969 3.04263 7.84254 2.86325C7.93606 2.80682 8.02326 2.74055 8.10266 2.66555C8.19832 2.54233 8.26741 2.40062 8.30556 2.24937C8.62551 1.29993 9.242 0.298463 10.2305 0.147594C11.1435 0.00712879 11.9759 0.644428 12.6782 1.2427L14.2207 2.5433C14.3921 2.08269 14.6988 1.68466 15.1005 1.40145C15.5021 1.11824 15.98 0.963091 16.4715 0.95634C16.9629 0.949589 17.4449 1.09155 17.8542 1.36362C18.2635 1.63569 18.581 2.02514 18.765 2.48086C19.7003 1.42712 20.879 0.618068 22.1986 0.124176C22.4899 0.0149254 22.8333 -0.0735166 23.1012 0.0903589C23.2667 0.210876 23.3918 0.37864 23.4602 0.57159C23.8797 1.49144 24.1071 2.48718 24.1287 3.49794C24.2368 3.46232 24.3536 3.46312 24.4612 3.50024C24.5688 3.53736 24.6612 3.60873 24.7243 3.70343C24.8438 3.89826 24.9118 4.12022 24.922 4.34852C24.9636 4.70162 24.9845 5.05687 24.9845 5.41242C25.0199 5.78876 24.9213 6.16553 24.7061 6.47631C24.3888 6.84308 23.8451 6.88209 23.3613 6.8925C23.5954 7.1006 23.481 7.51679 23.2234 7.69107C22.9472 7.83939 22.6324 7.90017 22.3208 7.86535C21.1191 7.86535 19.8419 7.82113 18.843 7.15262C18.4476 6.8925 18.1173 6.53874 17.7219 6.27862C16.7517 5.63612 15.5343 5.60491 14.4132 5.65953C13.4065 5.71416 12.6001 6.56735 11.6377 6.8795Z" fill="#FAC269"/>
<path d="M11.4167 6.61426C11.4167 6.61426 1.39685 8.01111 0 14.0693L2.09657 13.7598L3.57145 16.4C3.57145 16.4 5.13217 10.4978 9.70769 9.0984C14.2832 7.69895 15.922 7.46746 15.922 7.46746C15.922 7.46746 19.1058 8.24781 21.9802 17.4873L23.6111 15.2346L26.4724 15.8563C26.4724 15.8563 24.3759 8.63279 18.7052 6.61426H11.4167Z" fill="#FAC269"/>
</svg>

<svg xmlns="http://www.w3.org/2000/svg" width="32" height="34" fill="none"  xmlns:v="https://vecta.io/nano"><g fill="#ec665c"><path d="M31.417 8.128v16.234l-4.427 8.93-25.864-1.709V12.168l26.137.736 4.154-4.776z"/><path d="M32 3.818v5.668l-1.623 2.588-.924 1.467-2.037 3.246-.049-.003L.231 15.39V9.798l.07-.075 6.532-7.07L32 3.818z"/></g><g fill="#000"><path opacity=".1" d="M27.417 11.195v5.593L.231 15.391V9.798l.07-.075 27.115 1.472z"/><path opacity=".15" d="M32 3.818v5.668l-4.583 7.302v-5.593L32 3.818z"/></g><g fill="#fac269"><path d="M30.379 6.427l-.01 20.05-1.074 2.167.221-20.825L3.54 6.216l1.173-1.269 25.666 1.48z"/><path d="M17.631 6.611l-1.821 3.954-.182 21.978-4.367-.289V10.302l2.331-3.691h4.04z"/><path d="M11.638 6.88c-1.052.349-2.183.389-3.257.114a1.3 1.3 0 0 1-.57-.26 1.48 1.48 0 0 1-.354-.7c-.19-.539-.295-1.104-.312-1.675a1.87 1.87 0 0 1 .697-1.496 1.53 1.53 0 0 0 .26-.198 1.13 1.13 0 0 0 .203-.416c.32-.949.936-1.951 1.925-2.102.913-.14 1.745.497 2.448 1.095l1.543 1.301c.171-.461.478-.859.88-1.142s.88-.438 1.371-.445.973.135 1.383.407.727.662.911 1.117A8.64 8.64 0 0 1 22.199.124c.291-.109.635-.198.903-.034.166.121.291.288.359.481.419.92.647 1.916.668 2.926a.52.52 0 0 1 .596.205 1.35 1.35 0 0 1 .198.645c.042.353.063.708.063 1.064.035.376-.063.753-.278 1.064-.317.367-.861.406-1.345.416.234.208.12.624-.138.799-.276.148-.591.209-.903.174-1.202 0-2.479-.044-3.478-.713-.395-.26-.726-.614-1.121-.874-.97-.643-2.188-.674-3.309-.619-1.007.055-1.813.908-2.775 1.22z"/><path d="M11.417 6.614S1.397 8.011 0 14.069l2.097-.309 1.475 2.64s1.561-5.902 6.136-7.302 6.214-1.631 6.214-1.631 3.184.78 6.058 10.02l1.631-2.253 2.861.622s-2.096-7.224-7.767-9.242h-7.289z"/></g></svg>
